img/linked-in-white.svg

<?xml version="1.0" encoding="UTF-8"?>
<svg width="32px" height="32px" viewBox="0 0 32 32" version="1.1" xmlns="http://www.w3.org/2000/svg" xmlns:xlink="http://www.w3.org/1999/xlink">
    <!-- Generator: Sketch 43.1 (39012) - http://www.bohemiancoding.com/sketch -->
    <title>linked-in-white</title>
    <desc>Created with Sketch.</desc>
    <defs></defs>
    <g id="Page-1" stroke="none" stroke-width="1" fill="none" fill-rule="evenodd">
        <g id="linked-in-white" fill="#FFFFFF">
            <path d="M27.2684444,27.2675556 L22.5226667,27.2675556 L22.5226667,19.8408889 C22.5226667,18.0702222 22.4924444,15.792 20.0568889,15.792 C17.5866667,15.792 17.2097778,17.7217778 17.2097778,19.7146667 L17.2097778,27.2675556 L12.4693333,27.2675556 L12.4693333,11.9964444 L17.0186667,11.9964444 L17.0186667,14.0844444 L17.0844444,14.0844444 C17.7173333,12.8835556 19.2657778,11.6177778 21.5742222,11.6177778 C26.3804444,11.6177778 27.2684444,14.7795556 27.2684444,18.8924444 L27.2684444,27.2675556 L27.2684444,27.2675556 Z M7.11822222,9.91022222 C5.59377778,9.91022222 4.36444444,8.67733333 4.36444444,7.15733333 C4.36444444,5.63822222 5.59377778,4.40533333 7.11822222,4.40533333 C8.63644444,4.40533333 9.86844444,5.63822222 9.86844444,7.15733333 C9.86844444,8.67733333 8.63644444,9.91022222 7.11822222,9.91022222 L7.11822222,9.91022222 Z M4.74133333,27.2675556 L9.49244444,27.2675556 L9.49244444,11.9964444 L4.74133333,11.9964444 L4.74133333,27.2675556 Z M29.632,0 L2.36,0 C1.05777778,0 0,1.03288889 0,2.30755556 L0,29.6906667 C0,30.9653333 1.05777778,32 2.36,32 L29.632,32 C30.9368889,32 31.9991111,30.9653333 31.9991111,29.6906667 L31.9991111,2.30755556 C31.9991111,1.03288889 30.9368889,0 29.632,0 L29.632,0 Z" id="Fill-4"></path>
        </g>
    </g>
</svg>

<svg width="32" height="32" viewBox="0 0 32 32" xmlns="http://www.w3.org/2000/svg"><title>linked-in-white</title><path d="M27.268 27.268h-4.745V19.84c0-1.77-.03-4.049-2.466-4.049-2.47 0-2.847 1.93-2.847 3.923v7.553h-4.74V11.996h4.549v2.088h.065c.633-1.2 2.182-2.466 4.49-2.466 4.806 0 5.694 3.162 5.694 7.274v8.376zM7.118 9.91a2.751 2.751 0 0 1-2.754-2.753 2.751 2.751 0 1 1 5.504 0 2.752 2.752 0 0 1-2.75 2.753zM4.741 27.268h4.751V11.996h-4.75v15.272zM29.632 0H2.36C1.058 0 0 1.033 0 2.308V29.69C0 30.965 1.058 32 2.36 32h27.272c1.305 0 2.367-1.035 2.367-2.31V2.309C32 1.033 30.937 0 29.632 0z" fill="#FFF" fill-rule="evenodd"/></svg>
